!!!!SEGMENT: pl-sa--l-1643--020_anonim--salve-regina.krn
!!!cenid: 16xx:1375
!!!COM: Anonim
!!!COM-rism: pe30004985
!!!CDT:
!!!CNT:
!!!OTL: Salve Regina
!!!PDT:
!!!AGN:
!!!SMS-siglum: PL-SA
!!!SMS-shelfmark: L 1643
!!!NIFC-rismID: 1001064705
!!!URL-scan: http://repozytorium.nifc.pl/skany/pl-sa-nut--l1643
!!!ONB-nifc: UWAGA: 8 ksiąg. Primi chori: 1mus Cantus (x), C 2dus (42-43), C 3tius (x), Bassus (x); Secondi chori: Primus Cantus (x), C 2dus (x), Altus (x), Bassus (91-92). UWAGA: metrum 2/2. Nie dodawać pustych linii, chyba że w rękopisie pojawiają się dodatkowe oznaczenia dotyczące pełnej obsady (a 4, a 8 itp.)
!!!SMS-variant:
!!!SMS-altvar:
**kern	**text	**kern	**text
*group1	*	*group1	*
*part2	*part2	*part1	*part1
*staff2	*staff2	*staff1	*staff1
*I"Baſsus 2di Chori	*	*I"Cantus 2dus Primi Chori	*
*I'[Coro 2 B]	*	*I'[Coro 1 C 2]	*
*clefC3	*	*clefC1	*
*k[b-]	*	*k[b-]	*
*M2/2	*	*M2/2	*
*met(C|)	*	*met(C|)	*
=1-	=1-	=1-	=1-
0r	.	1r	.
=2-	=2-	=2-	=2-
.	.	2r	.
.	.	1g\	Vi-
=3-	=3-	=3-	=3-
*lig	*	*	*
1d	Vi-	.	.
.	.	2f#X/	.
=4-	=4-	=4-	=4-
1e	.	1g	.
*Xlig	*	*	*
=5-	=5-	=5-	=5-
1d	-ta	1d	-ta
=6-	=6-	=6-	=6-
0r	.	2r	.
.	.	1g\	vi-
=7-	=7-	=7-	=7-
.	.	2f#X/	.
=8-	=8-	=8-	=8-
1r	.	4g/	-ta
.	.	4b-\	vi-
.	.	4b-\	-ta
.	.	4b-\	dul-
=9-	=9-	=9-	=9-
2f\	vi-	2a\	-ce-
4f\	-ta	2fny/	-do
4f\	dul-	.	.
=10-	=10-	=10-	=10-
2B-/	-ce-	2r	.
2B-/	-do	2f/	dul-
=11-	=11-	=11-	=11-
2r	.	2e-X/	-ce-
2G/	dul-	2d/	-do
=12-	=12-	=12-	=12-
2c/	-ce-	2r	.
2G/	-do	2g\	dul-
=13-	=13-	=13-	=13-
2r	.	2cc\	-ce-
!	!	!LO:N:acc=#	!
4.g\	dul-	4bn,<\	-do
.	.	4b\	dul-
8f\	.	.	.
=14-	=14-	=14-	=14-
8e-X\L	.	2g\	-ce-
8d\J	.	.	.
4c/	-ce-	.	.
4g\	-do	4b-y\,<	-do
4G/	dul-	4dd\	dul-
=15-	=15-	=15-	=15-
2c/	-ce-	2cc\	-ce-
!	!	!LO:N:acc=#	!
2G/	-do	2bn\	-do
!	!	!LO:SIC:v:t=custos g	!
!	!	!LO:LB:g=original	!
=16-	=16-	=16-	=16-
0r	.	2r	.
.	.	2g/	et
=17-	=17-	=17-	=17-
.	.	2d/	spes
.	.	1eny/	noſ-
=18-	=18-	=18-	=18-
1r	.	.	.
.	.	2f#X/	.
=19-	=19-	=19-	=19-
2r	.	1g	-tra
2g\	e	.	.
=20-	=20-	=20-	=20-
2.g\	epes	0r	.
4f\	.	.	.
!LO:SIC:v:t=custos e-	!	!	!
!LO:LB:g=original	!	!	!
=21-	=21-	=21-	=21-
1e-X	noſ-	.	.
=22-	=22-	=22-	=22-
1d	-tra	2r	.
.	.	1fny/	et
=23-	=23-	=23-	=23-
0r	.	.	.
.	.	2e/	spes
=24-	=24-	=24-	=24-
.	.	2d/	.
.	.	2d/	nos-
=25-	=25-	=25-	=25-
1r	.	2.a\	-tra
.	.	4g\	sal-
=26-	=26-	=26-	=26-
2r	.	2f,</	-ve
1d\	et	4f/	sal-
.	.	4g/	.
=27-	=27-	=27-	=27-
.	.	2a,<\	-ve
2A/	spes	4e/	sal-
.	.	4f/	.
=28-	=28-	=28-	=28-
2c/	noſ-	4g\	.
.	.	4a\	.
2G/	-tra	4b-y\	.
.	.	4cc\	.
=29-	=29-	=29-	=29-
1d	sal-	1dd	-ve
=30-	=30-	=30-	=30-
1G	-ve	4b-\	sal-
.	.	4cc\	-ve
.	.	2dd\	.
=31-	=31-	=31-	=31-
2.G/	sal-	2g/	.
.	.	4b-\	sal-
4A/	.	4cc\	.
!	!	!LO:SIC:v:t=custos dd 	!
!	!	!LO:LB:g=original	!
=32-	=32-	=32-	=32-
2.B-/	.	1dd	-ve
4c/	.	.	.
=33-	=33-	=33-	=33-
0d	.	4dd\	sal-
.	.	4cc\	.
.	.	1b-\	.
=34-	=34-	=34-	=34-
.	.	2a\	.
=35-	=35-	=35-	=35-
0G;;	-ve	0g;;	-ve?
=36-	=36-	=36-	=36-
.	.	.	.
=37||-	=37||-	=37||-	=37||-
1.G	Ad	2.b-\	Ad
.	.	4a\	.
=38-	=38-	=38-	=38-
.	.	2g\	te
2d\	te	2a\	.
=39-	=39-	=39-	=39-
2r	.	2r	.
!	!	!LO:N:acc=#	!
4G/	sus-	4bn\	sus-
4G/	-pi-	4b\	-pi-
=40-	=40-	=40-	=40-
2c/	-ra-	2cc\	-ra-
!LO:SIC:v:t=custos c	!	!	!
2c/	-mus	2cc\	-mus
=41-	=41-	=41-	=41-
2r	.	2r	.
4c/	ſus-	4g/	sus-
4c/	-pi-	4cc\	-pi-
=42-	=42-	=42-	=42-
4F/	-ra-	4a\	-ra-
8F/	-mus	8a\	-mus
8F/	ge-	8a\	ge-
4B-/	-men-	4cc\	-men-
!	!	!LO:TX:t=P:problem:ukośna kreseczka nad nutą	!
8B-/	-tes	8b-y\	-tes
8F/	ge-	8cc\	ge-
=43-	=43-	=43-	=43-
4B-/	-men-	4dd\	-men-
8B-/	-tes	8b-\	-tes
8B-/	ge-	8b-\	ge-
2G/	-men-	2b-\	-men-
!	!	!LO:SIC:v:t=custos a	!
!	!	!LO:PB:g=original	!
=44-	=44-	=44-	=44-
1d	-tes	1a	-tes
=45-	=45-	=45-	=45-
0r	.	2r	.
.	.	2f#X/	et
=46-	=46-	=46-	=46-
.	.	1g	flen-
=47-	=47-	=47-	=47-
2r	.	1f#X	-tes
2d\	et	.	.
=48-	=48-	=48-	=48-
4c/	flen-	0r	.
4B-/	.	.	.
2A/	.	.	.
=49-	=49-	=49-	=49-
1G	-tes	.	.
=50-	=50-	=50-	=50-
00r	.	2.g\	in
.	.	4g/	hac
=51-	=51-	=51-	=51-
.	.	2g/	lach-
.	.	2fny/	-ri-
=52-	=52-	=52-	=52-
.	.	2e-X/	-ma-
.	.	2d/	-rum
=53-	=53-	=53-	=53-
.	.	1.c	va-
=54-	=54-	=54-	=54-
2.G/	in	.	.
.	.	2d/	-le
4G/	hac	.	.
=55-	=55-	=55-	=55-
4G/	la-	0r	.
!LO:SIC:v:t=custos g	!	!	!
!LO:LB:g=original	!	!	!
4G/	-cri-	.	.
2B-/	-ma-	.	.
=56-	=56-	=56-	=56-
0F	-rum	.	.
=57-	=57-	=57-	=57-
.	.	1r	.
=58-	=58-	=58-	=58-
2.A/	in	4f/	in
.	.	4f/	hac
.	.	4a\	la-
4A/	hac	4a\	-cri-
=59-	=59-	=59-	=59-
4A/	la-	1cc	-ma-
4A/	-cri-	.	.
1c\	-ma-	.	.
=60-	=60-	=60-	=60-
.	.	2g\	-rum
2G/	-rum	2.g\	val-
=61-	=61-	=61-	=61-
4G/	in	.	.
4G/	hac	4a\	.
4G/	la-	2b-,<\	-le
4G/	-cri-	.	.
=62-	=62-	=62-	=62-
1.B-	-ma-	2.b-\	lach-
.	.	4b-\	-ri-
!	!	!LO:SIC:v:t=custos b-	!
!	!	!LO:LB:g=original	!
=63-	=63-	=63-	=63-
.	.	2b-\	-ma-
2c/	-rum	2g/	-rum
=64-	=64-	=64-	=64-
0d	va-	2f#X/	.
.	.	1g\	val-
=65-	=65-	=65-	=65-
.	.	2f#X/	.
=66-	=66-	=66-	=66-
0G;;	-le	0g	-le?
=67-	=67-	=67-	=67-
.	.	.	.
=68||-	=68||-	=68||-	=68||-
1r	.	00r	.
=69-	=69-	=69-	=69-
2B-/	Et	.	.
2F/	Ie-	.	.
=70-	=70-	=70-	=70-
4B-/	-ſum	.	.
4B-/	et	.	.
!LO:SIC:v:t=custos f	!	!	!
!LO:LB:g=original	!	!	!
2f\	Ie-	.	.
=71-	=71-	=71-	=71-
2B-/	-ſum	.	.
2F/	et	.	.
=72-	=72-	=72-	=72-
2B-/	Ie-	00r	.
2F/	-ſum	.	.
=73-	=73-	=73-	=73-
0r	.	.	.
=74-	=74-	=74-	=74-
4.c/	be-	.	.
8B-/	-ne-	.	.
4A/	-di-	.	.
4F/	-ctum	.	.
=75-	=75-	=75-	=75-
4B-/	be-	00r	.
4G/	-ne-	.	.
4.A/	-di-	.	.
8B-/	.	.	.
=76-	=76-	=76-	=76-
2c/	.	.	.
2F/	-ctum	.	.
=77-	=77-	=77-	=77-
0r	.	.	.
=78-	=78-	=78-	=78-
2r	.	2b-\	No-
2ryy	.	2a\	.
=79-	=79-	=79-	=79-
(>2B-/	no-	2b-\	-bis
2F/)	.	2r	.
=80-	=80-	=80-	=80-
2B-/	-bis	2b-\,<	no-
2r	.	2a\	.
=81-	=81-	=81-	=81-
0r	.	2b-\	-bis
.	.	2g\	poſt
=82-	=82-	=82-	=82-
.	.	4fny/	hoc
.	.	4b-\	e-
.	.	4.a\	-xi-
.	.	8a\	-li-
=83-	=83-	=83-	=83-
2r	.	2b-\	-um
2c/	post	2r	.
=84-	=84-	=84-	=84-
4d\	hoc	0r	.
4B-/	e-	.	.
!LO:SIC:v:t=custos f	!	!	!
!LO:LB:g=original	!	!	!
4.f\	-xi-	.	.
8f\	-li-	.	.
=85-	=85-	=85-	=85-
2B-/	-um	.	.
2r	.	.	.
=86-	=86-	=86-	=86-
0r	.	4a\	O-
.	.	8g/L	.
.	.	8f/J	.
.	.	4eny/	.
.	.	4f/	.
!	!	!LO:SIC:v:t=custos g	!
!	!	!LO:LB:g=original	!
=87-	=87-	=87-	=87-
.	.	2g/	-sten-
.	.	2f#X/	-de
=88-	=88-	=88-	=88-
4A/	o-	0r	.
4B-/	.	.	.
4c/	.	.	.
8B-/L	.	.	.
8A/J	.	.	.
=89-	=89-	=89-	=89-
2G/	-sten-	.	.
2d\	-de	.	.
=90-	=90-	=90-	=90-
00r	.	2r	.
.	.	4fny/	O-
.	.	8e/L	.
.	.	8d/J	.
=91-	=91-	=91-	=91-
.	.	4c/	-sten-
.	.	4d/	.
.	.	4e/	.
.	.	4f/	.
=92-	=92-	=92-	=92-
.	.	2g,</	-de
.	.	4a\	O-
.	.	8g/L	.
.	.	8f/J	.
=93-	=93-	=93-	=93-
.	.	4e/	.
.	.	4d/	.
.	.	2e/	-sten-
=94-	=94-	=94-	=94-
2r	.	2f#X/	-de
4d\	.	2r	.
4e-X\	.	.	.
=95-	=95-	=95-	=95-
4f\	.	00r	.
8e-X\L	.	.	.
8d\J	.	.	.
4c\	.	.	.
4d\	.	.	.
=96-	=96-	=96-	=96-
2.e-X\	sten-	.	.
4d\	.	.	.
=97-	=97-	=97-	=97-
1c	.	.	.
=98-	=98-	=98-	=98-
1B-	-de	.	.
=99-	=99-	=99-	=99-
0r	.	4cc\	O-
.	.	8b-\L	.
.	.	8a\J	.
.	.	4b-\	.
.	.	4g/	.
=100-	=100-	=100-	=100-
.	.	2a\	-sten-
.	.	2b-\	-de
=101-	=101-	=101-	=101-
4f\	o-	0r	.
8e-X\L	.	.	.
8d\J	.	.	.
4c\	.	.	.
4d\	.	.	.
=102-	=102-	=102-	=102-
4e-X\	.	.	.
8d\L	.	.	.
8c\J	.	.	.
2B-/	.	.	.
!LO:SIC:v:t=custos f	!	!	!
!LO:PB:g=original	!	!	!
=103-	=103-	=103-	=103-
2f\	-sten-	1r	.
2B-/	-de	.	.
=104-	=104-	=104-	=104-
00r	.	4d/	O-
.	.	4e/	.
!	!	!LO:SIC:v:t=custos f	!
!	!	!LO:LB:g=original	!
.	.	4fny/	.
.	.	8e/L	.
.	.	8d/J	.
=105-	=105-	=105-	=105-
.	.	4c/	-sten-
.	.	4d/	.
.	.	4e/	.
.	.	4f/	.
=106-	=106-	=106-	=106-
.	.	4g/	-de
.	.	2g/	o-
.	.	4f#X/	-sten-
=107-	=107-	=107-	=107-
.	.	1g	-de
=108-	=108-	=108-	=108-
4d\	o-	0r	.
4e-X\	.	.	.
4f\	.	.	.
8e-X\L	.	.	.
8d\J	.	.	.
=109-	=109-	=109-	=109-
4c\	.	.	.
4d\	.	.	.
4e-X\	.	.	.
8d\L	.	.	.
8c\J	.	.	.
=110-	=110-	=110-	=110-
4B-/	.	1r	.
4c/	.	.	.
2d\	-sten-	.	.
=111-	=111-	=111-	=111-
4G/	-de	2g/	O-
4G/	o-	.	.
2c/	-sten-	2g/	-sten-
=112-	=112-	=112-	=112-
4c/	-de	4g/	-de
!LO:N:acc=#	!	!	!
4Bn/	o-	4g/	o-
2d\	-sten-	2a\	-sten-
=113-	=113-	=113-	=113-
0G;;	-de	0g;>	-de
=114-	=114-	=114-	=114-
.	.	.	.
=115||-	=115||-	=115||-	=115||-
2r	.	2r	.
2d\	O	2a\	O
=116-	=116-	=116-	=116-
2r	.	2r	.
2A/	o	2a\	o
=117-	=117-	=117-	=117-
2r	.	2r	.
2B-y/	o	2dd\	o
=118-	=118-	=118-	=118-
2r	.	2r	.
2F/	o	2a\	o
=119-	=119-	=119-	=119-
2c/	pi-	2cc\	pi-
2c/	-a	2cc\	-a
=120-	=120-	=120-	=120-
2r	.	2r	.
2d\	o	2a\	o
!	!	!LO:SIC:v:t=custos a	!
!	!	!LO:LB:g=original	!
=121-	=121-	=121-	=121-
2A/	pi-	2a\	pi-
2A/	-a	2a\	-a
=122-	=122-	=122-	=122-
2r	.	2r	.
2B-/	o	2b-\	o
=123-	=123-	=123-	=123-
8G/L	pi-	2b-\	pi-
8A/	.	.	.
8B-/	.	.	.
8c/J	.	.	.
4d\	-a	4a\	-a
4d\	o	4a\	o
=124-	=124-	=124-	=124-
2g\	pi-	2g/	pi-
4d\	-a	4f#X/	-a
4d\	o	4f#/	o
=125-	=125-	=125-	=125-
8G/L	pi-	2g\	pi-
8A/	.	.	.
8B-/	.	.	.
8c/J	.	.	.
4d\	-a	4a/	-a
4d\	o	4a/	o
!LO:SIC:v:t=custos g	!	!	!
!LO:LB:g=original	!	!	!
=126-	=126-	=126-	=126-
4g\	pi-	4b-\	pi-
8d\	-a	8a\	-a
8d\	o	8a\	o
4G/	pi-	4g/	pi-
8d\	-a	8f#X/	-a
8d\	o	8a\	o
=127-	=127-	=127-	=127-
4g\	pi-	4b-\	pi-
8d\	-a	8a\	-a
8d\	o	8a\	o
2G/	pi-	2g/	pi-
=128-	=128-	=128-	=128-
4d\	-a	4f#X/	-a
4d\	o	4f#/	o
4.B-/	pi-	4d/	pi-
.	.	4d/	-a
8A/	.	.	.
=129-	=129-	=129-	=129-
4G/	-a	2.dd\	o
4d\	o	.	.
4.B-/	pi-	.	.
.	.	4b-\	pi-
8A/	.	.	.
!	!	!LO:SIC:v:t=custos dd	!
!	!	!LO:LB:g=original	!
=130-	=130-	=130-	=130-
4G/	-a	2dd\	-a
4G/	o	.	.
4.B-/	pi-	4.g/	o
8A/	.	8a\	.
=131-	=131-	=131-	=131-
2G/	-a	4b-\	pi-
.	.	4cc\	-a
2F#X/	o	2dd\	o
=132-	=132-	=132-	=132-
1G	pi-	1b-	pi-
=133-	=133-	=133-	=133-
0d;;	-a	0a;;	-a?
=-||	=-||	=-||	=-||
*-	*-	*-	*-
!!!system-decoration: [(g1)]
!!!ENC: Andrzej Gręziak
!!!END: 2021-10-01
!!!EED: Jędrzej Mróz
!!!ESR: 2021-10-08
!!!RDF**kern: > = above
!!!RDF**kern: < = below
